icons/measure-building-height-top-shadow-32.svg

<svg id="icons" xmlns="http://www.w3.org/2000/svg" viewBox="0 0 32 32"><title>measure-building-height-top-shadow-32</title><path d="M4,4H7V7H4ZM9,7h3V4H9ZM4,14H7V11H4Zm5,0h3V11H9ZM4,21H7V18H4Zm5,0h3V18H9ZM4,28H7V25H4Zm5,0h3V25H9Zm20.375-1.2041-1.05859.56451L30.584,28.417l.37891-2.47168-1.05859.56635L17.61328,4.832l1.0586-.56445L16.40527,3.21094l-.37988,2.47168L17.084,5.11621ZM32,31v1H0V31H1V0H15V31ZM14,31V1H2V31Z"/></svg>

<svg xmlns="http://www.w3.org/2000/svg" viewBox="0 0 32 32"><path d="M4 4h3v3H4zm5 3h3V4H9zm-5 7h3v-3H4zm5 0h3v-3H9zm-5 7h3v-3H4zm5 0h3v-3H9zm-5 7h3v-3H4zm5 0h3v-3H9zm20.375-1.204l-1.059.564 2.268 1.057.379-2.472-1.059.567-12.29-21.68 1.058-.564-2.267-1.057-.38 2.472 1.059-.567zM32 31v1H0v-1h1V0h14v31zm-18 0V1H2v30z"/></svg>
